package/converter/svg/solid/grate.svg

<svg xmlns="http://www.w3.org/2000/svg" viewBox="0 0 448 512"><!--! Font Awesome Pro 6.6.0 by @fontawesome - https://fontawesome.com License - https://fontawesome.com/license (Commercial License) Copyright 2024 Fonticons, Inc. --><path d="M64 32C28.7 32 0 60.7 0 96L0 256 0 416c0 35.3 28.7 64 64 64l64 0 96 0 96 0 64 0c35.3 0 64-28.7 64-64l0-160 0-160c0-35.3-28.7-64-64-64l-64 0-96 0-96 0L64 32zm0 64l32 0 0 128-32 0L64 96zm0 192l32 0 0 128-32 0 0-128zm96 128l0-128 32 0 0 128-32 0zm96 0l0-128 32 0 0 128-32 0zm96 0l0-128 32 0 0 128-32 0zm32-192l-32 0 0-128 32 0 0 128zM288 96l0 128-32 0 0-128 32 0zm-96 0l0 128-32 0 0-128 32 0z"/></svg>

<svg xmlns="http://www.w3.org/2000/svg" viewBox="0 0 448 512"><!-- Font Awesome Pro 6.0.0-alpha2 by @fontawesome - https://fontawesome.com License - https://fontawesome.com/license (Commercial License) --><path d="M384 32H64C28.654 32 0 60.652 0 96V416C0 451.346 28.654 480 64 480H384C419.346 480 448 451.346 448 416V96C448 60.652 419.346 32 384 32ZM96 416H64V288H96V416ZM96 224H64V96H96V224ZM192 416H160V288H192V416ZM192 224H160V96H192V224ZM288 416H256V288H288V416ZM288 224H256V96H288V224ZM384 416H352V288H384V416ZM384 224H352V96H384V224Z"/></svg>
